X:1    
T:The Lark in the Morn
F:http://www.folkinfo.org/songs
B:A Garland of Country Song, S Baring Gould and H Fleetwood Sheppard, 1895
Z:S Baring-Gould
Q:1/4=106
M:4/4     
L:1/8   
K:Fm
F2 |c2 B3/2c/ A2 EG |A3/2B/ G3/2A/ F2 
w:The lark in the morn As she ri-ses from her nest, 
AB |c2 f3/2e/ c2 BA | B2 AB c2
w:Mounts_ thro' the white air with the dew on her breast.
 (AB) |c3/2c/ BA d2 FG |A3/2A/ GF c2
w:'Long_ with the pret-ty plough boy she'll whist-le and she'll sing
cc |f2 ed c2 BA | G2 F=E F2
w:And re-turns to her nest in the cool ev-en-ing,
 C3/2C/ |F2 GA B2 cc |G2 G3/2F/ HF2 |]
w:And re-turns to her nest in the cool ev-en-ing. 